src/icons/file-license.svg

<svg width="16" height="16" viewBox="0 0 16 16" fill="none" xmlns="http://www.w3.org/2000/svg">
<path d="M8 15V13H10H12V15L10 14L8 15Z" fill="#F1667F"/>
<path fill-rule="evenodd" clip-rule="evenodd" d="M1.77248 4.36502C1.5 4.8998 1.5 5.59987 1.5 7V9C1.5 10.4001 1.5 11.1002 1.77248 11.635C2.01217 12.1054 2.39462 12.4878 2.86502 12.7275C3.3998 13 4.09987 13 5.5 13H10.5C11.9001 13 12.6002 13 13.135 12.7275C13.6054 12.4878 13.9878 12.1054 14.2275 11.635C14.5 11.1002 14.5 10.4001 14.5 9V7C14.5 5.59987 14.5 4.8998 14.2275 4.36502C13.9878 3.89462 13.6054 3.51217 13.135 3.27248C12.6002 3 11.9001 3 10.5 3H5.5C4.09987 3 3.3998 3 2.86502 3.27248C2.39462 3.51217 2.01217 3.89462 1.77248 4.36502ZM6 6.125H3V4.875H6V6.125ZM5 8.625H3V7.375H5V8.625ZM6 11.125H3V9.875H6V11.125ZM10 9.90909L12 11V8.81818L13.5 8L12 7.18182V5L10 6.09091L8 5V7.18182L6.5 8L8 8.81818V11L10 9.90909Z" fill="#F1667F"/>
</svg>

<svg xmlns="http://www.w3.org/2000/svg" width="16" height="16" fill="none"><path fill="#F1667F" d="M8 15v-2h4v2l-2-1z"/><path fill="#F1667F" fill-rule="evenodd" d="M1.772 4.365C1.5 4.9 1.5 5.6 1.5 7v2c0 1.4 0 2.1.272 2.635a2.5 2.5 0 0 0 1.093 1.092C3.4 13 4.1 13 5.5 13h5c1.4 0 2.1 0 2.635-.273a2.5 2.5 0 0 0 1.092-1.092C14.5 11.1 14.5 10.4 14.5 9V7c0-1.4 0-2.1-.273-2.635a2.5 2.5 0 0 0-1.092-1.093C12.6 3 11.9 3 10.5 3h-5c-1.4 0-2.1 0-2.635.272a2.5 2.5 0 0 0-1.093 1.093M6 6.125H3v-1.25h3zm-1 2.5H3v-1.25h2zm1 2.5H3v-1.25h3zm4-1.216L12 11V8.818L13.5 8 12 7.182V5l-2 1.09L8 5v2.182L6.5 8l1.5.818V11z" clip-rule="evenodd"/></svg>
